img/entrance.svg

<svg width="20" height="19" viewBox="0 0 20 19" fill="none" xmlns="http://www.w3.org/2000/svg">
<path d="M6.04 14.88L12.96 9.5L6.04 4.13V7.04H0V11.96H6.04V14.88Z" fill="white"/>
<path d="M18 0H5C4.46957 0 3.96086 0.210714 3.58579 0.585786C3.21071 0.960859 3 1.46957 3 2V4H5V2H18V17H5V15H3V17C3 17.5304 3.21071 18.0391 3.58579 18.4142C3.96086 18.7893 4.46957 19 5 19H18C18.5304 19 19.0391 18.7893 19.4142 18.4142C19.7893 18.0391 20 17.5304 20 17V2C20 1.46957 19.7893 0.960859 19.4142 0.585786C19.0391 0.210714 18.5304 0 18 0Z" fill="white"/>
</svg>

<svg xmlns="http://www.w3.org/2000/svg" width="21" height="19" viewBox="0 0 21 19"><g fill="#fff"><path d="M6 14.875L12.917 9.5 6 4.125v2.917H-.042v4.917H6z"/><path d="M18 0H5C3.9 0 3 .9 3 2v2h2V2h13v15H5v-2H3v2c0 1.1.9 2 2 2h13c1.1 0 2-.9 2-2V2c0-1.1-.9-2-2-2z"/></g></svg>
